!!!!SEGMENT: pl-sa--l-1636--030_anonim--keyboard-piece.krn
!!!cenid: 17xx:737
!!!COM: Anonim
!!!COM-rismID:
!!!CDT:
!!!CNT:
!!!OTL: [Keyboard piece]
!!!PDT:
!!!AGN: Secular
!!!SMS-siglum: PL-SA
!!!SMS-shelfmark: L 1636
!!!SMS-shelfwork: 030 W
!!!SMS-variant:
!!!SMS-altvar:
!!!NIFC-rismSourceID: 1001076503
!!!NIFC-islandoraID:
!!!URL-pdf-islandora:
!!!URL-scan:
!!!ONB-nifc: 9r, skan 0012, s. 7-8
!!!AIN: 1 empty
!!!key:
**kern	**kern
*part1	*part1
*staff2	*staff1
*Iempty	*Iempty
*I"[Keyboard]	*
*I'keyb	*
*clefF4	*clefC1
*k[b-]	*k[b-]
*F:	*F:
*M2/2	*M2/2
*met(c|)	*met(c|)
=1	=1
1r	4f/
.	4f/
.	8.e/L
.	16d/Jk
.	4c/
=2	=2
4B-\	8d/L
.	8c/
4B-\	8d/
.	8e/J
8.A\L	4d/
16G\Jk	.
4F\	4f/
=3	=3
8G\L	2e-X/
8F\	.
8G\	.
8A\J	.
8B-\L	4d/
8A\	.
8G\	4g/
16A\L	.
16B-\JJ	.
=4	=4
*	*^
8c\L	4e/	4c\
8B-\	.	.
8A\	4a/	4f\
8d\J	.	.
8B-\L	2g/	4f\
8G\	.	.
8c\	.	4e\
8B-\J	.	.
=5	=5	=5
*^	*	*
*	*	*	*2\right
4A\	2c/	4cc/	2f\
4F\	.	4cc/	.
4F\	2G/	8.b-/L	2ryy
.	.	16a/Jk	.
4E\	.	4g/	.
*v	*v	*	*
*	*v	*v
=6	=6
4F\	8a\L
.	8g\
4F\	8a\
.	8b-\J
8.E\L	4g/
16D\Jk	.
4C/	4cc\
!!LO:LB:g=original
=7	=7
*	*^
8D/L	2b-/	2ryy
8C/	.	.
8D/	.	.
8E/J	.	.
4F\	2a/	2f\
8AA/L	.	.
8BB-/J	.	.
=8	=8	=8
*^	*	*
*	*2\right	*	*
4C/	2CC\	2g/	4e\
4C/	.	.	4e\
8.AA/L	2ryy	2a/	2f\
16GG/Jk	.	.	.
4FF/	.	.	.
*	*	*v	*v
=9	=9	=9
4r	2BB-\	8d/L
.	.	8e/
[>4B-/	.	8f/
.	.	8g/J
4B-/]	2C\	8e/L
.	.	8c/J
4A/	.	4f/
=10	=10	=10
*	*	*^
2G 2E/	2C\	8f/L	4ryy
.	.	16e/L	.
.	.	16d/JJ	.
.	.	4e/	8c\L
.	.	.	8B-\J
2F 2C/	2AA 2FF/	2f 2c/	2A\
*v	*v	*	*
*	*v	*v
!LO:TX:a:t=P:||:problem=w źródle końcowa kreska taktowa 	!LO:TX:a:t=P:||:problem=w źródle końcowa kreska taktowa 
==;;	==;;
*-	*-
!!!system-decoration: s1,s2
!!!RDF**kern: > = above
!!!RDF**kern: < = below
!!!EED: Antoni Szymański
!!!EEV: 2020-12-07
!!!ENC: Tomasz Grochalski
!!!END: 2020-06-11
